X:1
T:Ave Verum Corpus
T:Charles Gounod Douze chœurs et une cantate, 1869
T:with or w/o organ
T:Ave Verum Corpus
T:Copyright © 2017 by CPDL.  This edition can be fully distributed, duplicated, performed, and recorded.
T:Copyright © 2017 by CPDL.  This edition can be fully distributed, duplicated, performed, and recorded.
T:Copyright © 2017 by CPDL.  This edition can be fully distributed, duplicated, performed, and recorded.
C:Charles Gounod
C:Douze chœurs et une cantate, 1869
Z:with or w/o organ
Z:Copyright © 2017 by CPDL.  This edition can be fully distributed, duplicated, performed, and recorded.
%%score { ( 1 2 5 ) | ( 3 4 ) }
L:1/8
Q:1/4=60
M:4/4
K:Eb
V:1 treble nm="Choir" snm="Choir"
V:2 treble 
V:5 treble 
V:3 bass 
V:4 bass 
V:1
!p! B4 B4 |!<(! B4!<)!!>)!!>(! (d2 c2) | B4 B4 | B4 B4 |!<(! B2 B2!<)!!>(! d2!>)! c2 | B3 B B4 | %6
w: A- ve|ve- rum _|cor- pus|na- tum|de Ma- ri- a|Vir- gi- ne,|
"^cresc." _d2 d2 d4 | c4 c2 c2 | c4 c2 c2 |"^dim." B4 B2 B2 |!p! B3 B B4 |"^cresc." A2 A2 A4 | %12
w: ve- re pas-|sum, im- mo-|la- tum in|cru- ce pro|ho- mi- ne,|im- mo- la-|
 G2 G2"^dim." G4 | G2 F2 F3 E |!pp! E8 |!<(! G4!<)! c4 | B2 A2 F2 G2 |!>(! A4!>)! G2 z2 | %18
w: tum in cru-|ce pro ho- mi-|ne;|cu- jus|la- tus per- fo-|ra- tum|
!<(! G4!<)! d4 | (c2 B2)!>(! G2 =A2!>)! | B3 B B4 | B4 B2!<(! B2- | B2 B2!<)!!>(! e2!>)! c2 | %23
w: flu- xit|un- * da et|san- gui- ne.|E- sto no-|* bis prae- gu-|
 B4 B4 | B4!<(! B4- | B2 (B2!<)!!>(! e2) c2!>)! | B3 B B4 |!pp!!<(! B4 B2!<)! B2 | (B2 =c2) c4 | %29
w: sta- tum|mor- tis|_ in _ ex-|a- mi- ne.|O Je- su|dul- * cis,|
"^cresc." c4 c2 c2 | (c2 =d2) d4 |!f! e2 g4 f2 | (e2 _d2) c2 B2 | B4 c2 f2 | e2 d2 c2 B2 | %35
w: O Je- su|pi- * e,|O Je- su|Fi- * li Ma-|ri- ae: Tu|no- bis mi- se-|
 B4 B2 B2 | e2 A2 A2 G2 |"^(2nd alto)"!>(! (G4!>)! F4) |!p! E4- E2 z2 |!<(! (G4!<)!!>)!!>(! B4) | %40
w: re- re, Tu|no- bis mi- se-|re- *|re. _|A- *|
!pp! G4- G2 z2 |!<(! (G4!<)!!>)!!>(! B4) |!pp! G4- G2 z2 |"^cresc." (c4 B4 | A4)"^dim." G4 | %45
w: men, _|A- *|men, _|A- *|* men,|
!p! F8 |!pp! E4- E2 z2 |] %47
w: A-|men. _|
V:2
 [EG]4 [EG]4 | [EG]4 [EA]4 | [EG]4 [EG]4 | [EG]4 [EG]4 | [EG]2 [EG]2 [EA]2 [EA]2 | %5
 [EG]3 [EG] [EG]4 | [EG]2 [EG]2 [EG]4 | [=EG]4 [EG]2 [EG]2 | [FA]4 [FA]2 [_EG]2 | %9
 [=DF]4 [DF]2 [DF]2 | [EG]3 [EG] [EG]4 | [CF]2 [CE]2 [B,D]4 | [B,D]2 [B,D]2 [CE]4 | %13
 [CE]2 [CE]2 [B,D]3 [B,E] | [B,E]8 | [CE]4 [CE]4 | [CD]2 [CD]2 [CD]2 [CD]2 | [CD]4 [CE]2 x2 | %18
 [DG]4 [DG]4 | [EG]4 [EG]2 [EG]2 | [DG]3 [DG] [DG]4 | [D_A]4 [DA]2 [DA]2- | %22
 [DA]2 [DA]2 [EG]2 [EG]2 | [DA]4 [DA]4 | [DA]4 [DA]4- | [DA]2 ([DA]2 [EG]2) [EG]2 | %26
 [DA]3 [DA] [DA]4 | [_D_G]4 [DG]2 [DG]2 | ([_D_G]2 [EA]2) [EA]4 | [FA]4 [FA]2 [FA]2 | [FA]4 [FA]4 | %31
 [GB]4 [B_d]2 [Ac]2 | ([_Gc]2 [FB]2) [E_A]2 [E=G]2 | [EG]4 [EA]2 [DB]2 | [GB]2 [FA]2 [EG]2 [DF]2 | %35
 (B2 A2) G2 G2 | [EA]2 [EF]2 [=DF]2 E2 | (E4 B,4) | [B,E]4- [B,E]2 x2 | ([B,E]4 [DG]4) | %40
 [CE]4- [CE]2 x2 | ([CE]4 [DG]4) | [B,E]4- [B,E]2 x2 | [CE]8- | [CE]4 [CE]4 | ([CE]4 [B,D]4) | %46
 [B,E]4- [B,E]2 x2 |] %47
V:3
 B,4 B,4 | B,4 B,4 | B,4 B,4 | B,4 B,4 | B,2 B,2 B,2 B,2 | B,3 B, B,4 | B,2 B,2 B,4 | B,4 B,2 B,2 | %8
 A,4 A,2 A,2 | A,4 A,2 A,2 | G,3 G, G,4 | A,2 G,2 F,4 | G,2 G,2 G,4 | A,2 A,2 A,3 G, | G,8 | %15
 G,4 G,4 | F,2 F,2 A,2 G,2 | F,4 G,2 z2 | B,4 B,4 | =A,2 B,2 D2 C2 | B,3 B, B,4 | B,4 B,2 B,2- | %22
 B,2 B,2 B,2 B,2 | B,4 B,4 | B,4 B,4- | B,2 B,4 B,2 | B,3 B, B,4 | B,4 B,2 B,2 | B,2 A,2 A,4 | %29
 A,4 A,2 A,2 | A,2 B,2 B,4 | B,2 E2 G,2 A,2 | =A,2 B,2 C2 _D2 | _D4 C2 B,2 | B,2 B,2 B,2 B,2 | %35
 B,4 B,2 B,2 | A,2 C2 B,2 B,2 | A,8 | G,4- G,2 z2 | G,8 | G,4- G,2 z2 | G,8 | G,4- G,2 z2 | A,8- | %44
 A,4 A,4 | A,8 | G,4- G,2 z2 |] %47
V:4
 G,4 G,4 | G,4 F,4 | G,4 G,4 | G,4 G,4 | G,2 G,2 F,2 F,2 | G,3 G, G,4 | G,2 G,2 G,4 | G,4 G,2 G,2 | %8
 F,4 F,2 F,2 | F,4 F,2 F,2 | E,3 E, E,4 | E,2 E,2 B,,4 | B,,2 B,,2 B,,4 | B,,2 B,,2 B,,3 E, | E,8 | %15
 C,4 C,4 | C,2 C,2 C,2 C,2 | C,4 C,2 x2 | G,4 G,4 | G,4 G,2 G,2 | G,3 G, G,4 | F,4 F,2 F,2- | %22
 F,2 F,2 G,2 G,2 | F,4 F,4 | F,4 F,4- | F,2 F,2 G,2 G,2 | F,3 F, F,4 | _G,4 G,2 G,2 | _G,4 G,4 | %29
 F,4 F,2 F,2 | F,4 F,4 | E,4 E,2 E,2 | E,4 E,2 E,2 | E,4 A,2 A,2 | A,2 A,2 A,2 A,2 | %35
 G,2 F,2 E,2 _D,2 | C,2 F,2 B,,2 E,2 | A,,4 B,,4 | E,4- E,2 x2 | E,4 B,,4 | C,4- C,2 x2 | %41
 C,4 B,,4 | E,4- E,2 x2 | A,4 G,4 | F,4 E,4 | B,,8 | E,4- E,2 x2 |] %47
V:5
 x8 | x8 | x8 | x8 | x8 | x8 | x8 | x8 | x8 | x8 | x8 | x8 | x8 | x8 | x8 | x8 | x8 | x8 | x8 | %19
 x8 | x8 | x8 | x8 | x8 | x8 | x8 | x8 | x8 | x8 | x8 | x8 | x8 | x8 | x8 | x8 | E4 E2 E2 | x8 | %37
 C4 D4 | x8 | x8 | x8 | x8 | x8 | x8 | x8 | x8 | x8 |] %47

